X:106
T: Die verunglueckte Muellerstochter
N: Q0106C
O: Mitteleuropa, Deutschland (BRD) , Nord - Bayern, Unter - Franken
R: Ballade, Unfall, Tod
M: 3/4
L: 1/4
K: G
 | G2A | B3 | B3 | d2d | e2d | d3 |
G2A | B3 | B3 | e2d | d2d | d3 | B3 |
G2d | d3 | B3 | d3 | d3 | B3 | d2g | e3 | e3 | e2d | d3 |
d2e | d2c | c2c | e3 | d2d | d3 | B2z

@@@ Tune index: 1399
